X: 14454
T: Game Cock, The
R: slide
M: 12/8
K: Dmajor
|:E|F2 A d2 A B^AB d2 =A|Bcd A2 F E3 E2 G|
F2 A d2 A B^AB d2 =A|Bcd A2 F D3 D2:|
g|fgf f2 e d2 e f2 g|a2 f d2 f e3 e^de|
f3 f2 e d2 e f2 e|d2 B A2 F D3 D2 g|
fgf f2 e d2 A efg|a2 f def e2 A d2 e|
f^ef a2 f =e^de f2 A|Bcd A2 F D3- D2||

